X: 585
T: Hayden Fancy
B: good tune book
B: tunes
M:2/4
L:1/8
R: polka
Q: 1/4=100
K:D
V:1 
|:A>B df|A>B d/f/e/d/|eB BA/B/|dB Bd|
A>B df|A>B d/f/e/d/|eB cd|ed d2:|
af f/e/d/f/|af f>e|dB BA/B/|dB BA|
af f/e/d/f/|af f>e|dB cd|ed d2:|
% abcbook-tune_id 63dce41a0875fb7cfcca8d7e
% abcbook-tune_composer_id 
% abcbook-link-0 https://www.youtube.com/watch?v=SkgrPHtzb48
% abcbook-link-title-0 Hayden&#39;s Fancy
% abcbook-link-start-at-0 10
% abcbook-link-end-at-0 70
% abcbook-boost 8
% abcbook-difficulty 0
% abcbook-tags good tune book
% abcbook-tablature 
% abcbook-transpose -7
% abcbook-tuning 
% abcbook-lastupdated 1675484855978
% abcbook-soundfonts 
% abcbook-repeats 1
%%MIDI transpose      -7
% Rhythm Polka
% Titles One title
% Transcriptions Only 1 transcription
% Movement Has some stepwise movement
% Mode major
% Key D
% Time_signature 2/4
% Has_accompaniment_chords No chords

